!!!COM:	Josquin des Prez
!!!CDT:	~1450-1521/08/27
!!!OPR:	Missa Sine nomine
!!!OTA: Missa Ad fugam
!!!ONM:	1
!!!OTL:	Kyrie
!!!AGN:	Mass; Kyrie
!!!SCT:	NJE 12.2
!!!SCA:	New Josquin Edition 12.2
!!!voices: 4
**kern	**kern	**kern	**kern
*staff4	*staff3	*staff2	*staff1
*Ivox	*Ivox	*Ivox	*Ivox
*I"Bassus	*I"Tenor	*I"Altus	*I"Superius
*>[A,B,C]	*>[A,B,C]	*>[A,B,C]	*>[A,B,C]
*>Kyrie1[A]	*>Kyrie1[A]	*>Kyrie1[A]	*>Kyrie1[A]
*>Christe[B]	*>Christe[B]	*>Christe[B]	*>Christe[B]
*>Kyrie2[C]	*>Kyrie2[C]	*>Kyrie2[C]	*>Kyrie2[C]
*clefF4	*clefGv2	*clefGv2	*clefG2
*k[]	*k[]	*k[]	*k[]
*>A	*>A	*>A	*>A
*M3/1	*M3/1	*M3/1	*M3/1
*met(O)	*met(O)	*met(O)	*met(O)
=1-	=1-	=1-	=1-
!	!	!	!LO:TX:Z=6:t=Tenor. In diatesseron sequentibus signis
0.r	0.r	0A	[0.a
.	.	1D	.
=2	=2	=2	=2
0.r	0.r	1.A	0a]
.	.	2F/	.
.	.	1B-	1d
=3	=3	=3	=3
0.r	0.r	1A	1.a
.	.	2r	.
.	.	2c\	2g/
.	.	2d\	1b-
.	.	2e\	.
=4	=4	=4	=4
0.r	0.r	0f	1a
.	.	.	2r
.	.	.	1a
.	.	2r	.
.	.	2c\	2g/
=5	=5	=5	=5
!!linebreak:default
0.r	0.r	2d\	1b-i
.	.	2e\	.
.	.	2.f\	0a
.	.	4e\	.
.	.	2d\	.
.	.	2c\	.
=6	=6	=6	=6
0.r	0.r	2d\	2r
.	.	2A/	1a
.	.	2.c\	.
.	.	.	2g/
.	.	4B\	.
.	.	2G/	1b-i
.	.	[2d\	.
=7	=7	=7	=7
0.r	0.r	4d\]	1a
.	.	4c\	.
.	.	2A/	.
.	.	2B\	2g/
.	.	2c\	2e/
.	.	2d\	1f
.	.	[2A/	.
=8	=8	=8	=8
0.r	[0.e	2A/]	1e
.	.	2.c\	.
.	.	.	1r
.	.	4B\	.
.	.	2G/	.
.	.	1A	1cc
=9	=9	=9	=9
!!linebreak:default
0E	0e]	1G	2.b\
.	.	.	4a/
.	.	1r	2b\
.	.	.	1cc
1F	1A	2r	.
.	.	2A/	4b\
.	.	.	4a/
=10	=10	=10	=10
1E	1.e	2B\	1g
.	.	2c\	.
2.G\	.	2.B\	2r
.	2d\	.	2.dd\
4F\	.	4A/	.
1D	1f	1d	.
.	.	.	4cc\
.	.	.	2a/
=11	=11	=11	=11
1A	1e	2.c\	1cc
.	.	4d\	.
1E	2r	1e	1b
.	1e	.	.
2.G\	.	2r	2r
.	2d\	2B\	[2dd\
4F\	.	.	.
=12	=12	=12	=12
1D	1f	1d	4dd\]
.	.	.	4cc\
.	.	.	2a/
2.A\	0e	2c\	1cc
.	.	4B\	.
4G\	.	4A/	.
1E	.	1G	1b
=13	=13	=13	=13
!!pagebreak:default
1r	2r	1A	1cc
.	1e	.	.
1G	.	1B	1b
.	2d\	.	.
2.F\	1f	2r	1a
.	.	2c\	.
4E\	.	.	.
=14	=14	=14	=14
1C	1e	2.c\	1g
.	.	4B\	.
2D\	2d\	2A/	2r
2E\	2B\	2G/	2g/
1AA	1c	1A	2.e/
.	.	.	4f/
=15	=15	=15	=15
0.El	[y1B	0.Gl	0.gl
.	0Byy]	.	.
!!LO:LB:i:g=z
=16||	=16||	=16||	=16||
*>B	*>B	*>B	*>B
!!section: Christie
!!!OMD: Christie
*M2/1	*M2/1	*M2/1	*M2/1
*met(C|)	*met(C|)	*met(C|)	*met(C|)
0r	0r	0r	0a
=17	=17	=17	=17
0r	0r	0r	1g
.	.	.	[1a
=18	=18	=18	=18
0r	0r	0A	2a/]
.	.	.	2b\
.	.	.	2cc\
.	.	.	2a/
=19	=19	=19	=19
!!linebreak:default
0r	0r	1G	1b
.	.	[1A	1a
=20	=20	=20	=20
0r	0r	2A/]	1r
.	.	2B\	.
.	.	2c\	1a
.	.	2A/	.
=21	=21	=21	=21
0r	0r	1B	1g
.	.	1A	[1a
=22	=22	=22	=22
0r	0r	1r	2a/]
.	.	.	2b\
.	.	1A	2cc\
.	.	.	2a/
=23	=23	=23	=23
0r	0r	2G/	1b
.	.	1.d	.
.	.	.	1a
=24	=24	=24	=24
0r	0r	2c\	1cc
.	.	1e	.
.	.	.	[1b
.	.	[2d\	.
=25	=25	=25	=25
!!linebreak:default
0r	0r	1d]	2b\]
.	.	.	2a/
.	.	2c\	2cc\
.	.	2e\	[2b\
=26	=26	=26	=26
0r	0r	2.d\	2b\]
.	.	.	2a/
.	.	4c\	.
.	.	2A/	2cc\
.	.	2B\	[2b\
=27	=27	=27	=27
0r	0r	2c\	4b\]
.	.	.	4a/
.	.	2d\	1a
.	.	1B	.
.	.	.	2g#i/
=28	=28	=28	=28
0r	0e	1A	2a/
.	.	.	2cc\
.	.	2G/	2b\
.	.	2E/	2g/
=29	=29	=29	=29
0r	1d	1F	1a
.	[1e	2E/	1g
.	.	2c\	.
=30	=30	=30	=30
0E	2e\]	2c\	0r
.	2f\	4B\	.
.	.	4A/	.
.	2g\	1G	.
.	2e\	.	.
=31	=31	=31	=31
!!pagebreak:default
1D	1f	1d	1a
[1E	1e	2B\	1g
.	.	[2c\	.
=32	=32	=32	=32
2E\]	1r	2c\]	1cc
2F\	.	2A/	.
2G\	1e	2B\	2b\
2E\	.	2c\	2g/
=33	=33	=33	=33
1F	1d	1A	1a
1E	[1e	2B\	1g
.	.	[2c\	.
=34	=34	=34	=34
1r	2e\]	2c\]	1cc
.	2f\	2A/	.
1E	2g\	2B\	2b\
.	2e\	2c\	2g/
=35	=35	=35	=35
2D\	1f	1F	2.a/
1.A	.	.	.
.	.	.	4b\
.	1e	2r	4cc\
.	.	.	4a/
.	.	2c\	2cc\
=36	=36	=36	=36
2G\	1g	2d\	2b\
1B-i	.	2G/	1dd
.	[1f	2B-\	.
[2A\	.	2F/	2cc\
=37	=37	=37	=37
!!linebreak:default
1A]	2f\]	2.c\	2a/
.	2e\	.	2cc\
.	.	4d\	.
2G\	2g\	2e\	2b\
2B-i\	[2f\	2d\	2dd\
=38	=38	=38	=38
2.A\	2f\]	2r	2.cc\
.	2e\	1e	.
4G\	.	.	4b\
2E\	2g\	.	2g/
2F\	[2f\	[2d\	2a/
=39	=39	=39	=39
2G\	4f\]	4d\]	2b\
.	4e\	4c\	.
2A\	1e	2.A/	2cc\
1F	.	.	1a
.	.	4G/	.
.	2d\	4A/	.
.	.	4B\	.
=40	=40	=40	=40
0El	[y2e\	2c\	0gl
.	1.e\]yy	2B\	.
.	.	1Bl	.
!!LO:LB:i:g=z
=41||	=41||	=41||	=41||
!!linebreak:default
*>C	*>C	*>C	*>C
!!section: Kyrie II
!!!OMD: Kyrie II
*M3/1	*M3/1	*M3/1	*M3/1
*met(O|)	*met(O|)	*met(O|)	*met(O|)
0.r	0.r	1A	1a
.	.	1c	2g/
.	.	.	1a
.	.	1d	.
.	.	.	2f/
=42	=42	=42	=42
0.r	0.r	2B\	2g/
.	.	2c\	2e/
.	.	2A/	2f/
.	.	2B\	2g/
.	.	1c	1e
=43	=43	=43	=43
0.r	0.r	1d	2r
.	.	.	2d/
.	.	2r	2e/
.	.	2D/	2f/
.	.	2E/	2g/
.	.	2F/	2d/
=44	=44	=44	=44
0.r	0.r	2G/	2e/
.	.	2D/	2f/
.	.	2E/	2g/
.	.	2F/	2a/
.	.	2G/	2r
.	.	2A/	2a/
=45	=45	=45	=45
!!pagebreak:default
0.r	0.r	2B-i\	2g/
.	.	2A/	2a/
.	.	2r	2f/
.	.	2c\	2e/
.	.	2Bni\	2.g/
.	.	2c\	.
.	.	.	4e/
=46	=46	=46	=46
0.r	0.r	2A/	2f/
.	.	2G/	2g/
.	.	1c	2e/
.	.	.	2g/
.	.	2A/	2f/
.	.	2B\	2d/
=47	=47	=47	=47
0.r	0.r	2c\	2e/
.	.	2.d\	2f/
.	.	.	2g/
.	.	4c\	.
.	.	2A/	1a
.	.	1B	.
.	.	.	2g#i/
=48	=48	=48	=48
0.r	1e	2.A/	1a
.	.	4G/	.
.	2d\	2F/	2r
.	1e	2E/	2b\
.	.	1A	2.cc\
.	2c\	.	.
.	.	.	4b\
=49	=49	=49	=49
!!linebreak:default
0.r	2d\	2F/	2a/
.	2B\	2G/	2dd\
.	2c\	2A/	2cc\
.	2d\	2D/	1a
.	1B	1E	.
.	.	.	2g#i/
=50	=50	=50	=50
1A	2r	2F/	2a/
.	2A/	2f\	2cc\
2G\	2B\	2g\	2b\
2A\	2c\	2e\	2.a/
2D\	2d\	2f\	.
.	.	.	4f/
2F\	2A/	2d\	2a/
=51	=51	=51	=51
1E	2B\	1e	1g
.	2c\	.	.
2D\	2d\	2f\	2r
2A\	2e\	2c\	2cc\
2G\	2r	2d\	2b\
2A\	2e\	2c\	2cc\
=52	=52	=52	=52
2F\	2d\	2d\	2a/
2E\	2e\	2B\	2g/
2r	2c\	2A/	2a/
2G\	2B\	2e\	2b\
2F\	2.d\	2f\	2a/
2G\	.	2d\	2b\
.	4B\	.	.
=53	=53	=53	=53
!!linebreak:default
2E\	2c\	2e\	2g/
2D\	2d\	2f\	2r
2r	2B\	1d	2g/
2D\	2d\	.	2f/
2E\	2c\	2r	2g/
2F\	2A/	2c\	2a/
=54	=54	=54	=54
2G\	2B\	2B\	2g/
2.A\	2c\	2A/	2.cc\
.	2d\	2B\	.
4G\	.	.	4b\
2E\	1e	2c\	2g/
1F	.	2.A/	1a
.	2d\	.	.
.	.	4B\	.
=55	=55	=55	=55
0.E	[y1e	4c\	2g/
.	.	4B\	.
.	.	1e	2cc\
.	0e_yy	.	2b\
.	.	2c\	1a
.	.	1B	.
.	.	.	2g#i/
=56	=56-	=56	=56
0.AAl	0.e]yy	0.Al	0.al
==	==	==	==
*-	*-	*-	*-
!!!RDF**kern: l=long note in original notation
!!!RDF**kern: i=musica ficta
!!!ENC: Jesse Rodin; Victoria Chang 2011/04/06/
!!!END: 2011/04/06/
!!!SMS: Davison, Missa sine nomine
!!!EED:	Jesse Rodin
!!!EEV:	2011/04/12/
!!!ONB:	Translated from MusicXML and edited on 2011/04/12/ by Craig Sapp
!!muse2ps: T^@{OPR}^u^@{ONM}{. }@{OTL}^C^@{COM}\n@{SCT}^i2I100v85,90,85,100
